packages/ui/public/icons/post-fundraiser-white-icon.svg

<svg viewBox="0 0 20 20" fill="none" xmlns="http://www.w3.org/2000/svg">
  <path opacity="0.12" d="M9.41837 18.0127C9.60287 18.1204 9.69512 18.1741 9.82529 18.202C9.92637 18.2237 10.0737 18.2237 10.1748 18.202C10.305 18.1741 10.3972 18.1204 10.5817 18.0127C12.205 17.0656 16.6667 14.0907 16.6667 10.0003V6.01497C16.6667 5.3487 16.6667 5.01558 16.5577 4.72922C16.4615 4.47625 16.305 4.25053 16.102 4.07157C15.8721 3.869 15.5602 3.75203 14.9364 3.51809L10.4682 1.84253C10.295 1.77756 10.2084 1.74508 10.1192 1.7322C10.0402 1.72078 9.95987 1.72078 9.88087 1.7322C9.79171 1.74508 9.70512 1.77756 9.53187 1.84253L5.06371 3.51809C4.43987 3.75203 4.12796 3.869 3.89809 4.07157C3.69502 4.25053 3.5386 4.47625 3.44234 4.72922C3.33337 5.01558 3.33337 5.3487 3.33337 6.01497V10.0003C3.33337 14.0907 7.79501 17.0656 9.41837 18.0127Z" fill="#FFFF" />
  <path d="M7.67751 12.0836C7.93768 12.579 8.45721 12.917 9.05562 12.917H10.8334C11.7539 12.917 12.5 12.1708 12.5 11.2503C12.5 10.3298 11.7539 9.58362 10.8334 9.58362H9.16671C8.24623 9.58362 7.50004 8.83745 7.50004 7.91696C7.50004 6.9965 8.24623 6.2503 9.16671 6.2503H10.9445C11.5429 6.2503 12.0624 6.58821 12.3225 7.08363M10 5.0003V6.2503M10 12.917V14.167M16.6667 10.0003C16.6667 14.0907 12.205 17.0656 10.5817 18.0127C10.3972 18.1204 10.305 18.1741 10.1748 18.202C10.0737 18.2237 9.92637 18.2237 9.82529 18.202C9.69512 18.1741 9.60287 18.1204 9.41837 18.0127C7.79501 17.0656 3.33337 14.0907 3.33337 10.0003V6.01497C3.33337 5.3487 3.33337 5.01558 3.44234 4.72922C3.5386 4.47625 3.69502 4.25053 3.89809 4.07157C4.12796 3.869 4.43987 3.75203 5.06371 3.51809L9.53187 1.84253C9.70512 1.77756 9.79171 1.74508 9.88087 1.7322C9.95987 1.72078 10.0402 1.72078 10.1192 1.7322C10.2084 1.74508 10.295 1.77756 10.4682 1.84253L14.9364 3.51809C15.5602 3.75203 15.8721 3.869 16.102 4.07157C16.305 4.25053 16.4615 4.47625 16.5577 4.72922C16.6667 5.01558 16.6667 5.3487 16.6667 6.01497V10.0003Z" stroke="#FFF" stroke-width="1.5" stroke-linecap="round" stroke-linejoin="round" />
</svg>

<svg viewBox="0 0 20 20" fill="none" xmlns="http://www.w3.org/2000/svg"><path opacity=".12" d="M9.418 18.013c.185.107.277.161.407.189a.946.946 0 0 0 .35 0c.13-.028.222-.082.407-.19 1.623-.946 6.085-3.921 6.085-8.012V6.015c0-.666 0-1-.11-1.286a1.667 1.667 0 0 0-.455-.657c-.23-.203-.542-.32-1.166-.554l-4.468-1.675a1.768 1.768 0 0 0-.349-.11.833.833 0 0 0-.238 0c-.09.012-.176.045-.35.11L5.065 3.518c-.624.234-.936.351-1.166.554-.203.179-.36.404-.456.657-.109.287-.109.62-.109 1.286V10c0 4.09 4.462 7.066 6.085 8.013Z" fill="#FFFF"/><path d="M7.678 12.084c.26.495.78.833 1.378.833h1.777a1.667 1.667 0 0 0 0-3.333H9.167a1.667 1.667 0 1 1 0-3.334h1.777c.599 0 1.118.338 1.378.834M10 5v1.25m0 6.667v1.25M16.667 10c0 4.09-4.462 7.066-6.085 8.013-.185.107-.277.161-.407.189a.946.946 0 0 1-.35 0c-.13-.028-.222-.082-.407-.19-1.623-.946-6.085-3.921-6.085-8.012V6.015c0-.666 0-1 .11-1.286.096-.253.252-.478.455-.657.23-.203.542-.32 1.166-.554l4.468-1.675c.173-.065.26-.098.349-.11a.833.833 0 0 1 .238 0c.09.012.176.045.35.11l4.467 1.675c.624.234.936.351 1.166.554.203.179.36.404.456.657.109.287.109.62.109 1.286V10Z" stroke="#FFF" stroke-width="1.5" stroke-linecap="round" stroke-linejoin="round"/></svg>
